X:1
T:Title
%%score ( 1 2 ) { 3 | 4 }
L:1/8
Q:1/4=97
M:6/8
K:D
V:1 treble nm="Grand Piano, Soprano"
V:2 treble 
V:3 bass nm="Choir Pad, Ventura, 76.76 D"
V:4 bass 
V:1
 [FA] [FA]2 [DF]EC | [A,D] [DF]2- [DF] [CE]2 | [DF][EG][DF] [EG] [Gc]2 | %3
w: By~Daniel~Brink~Towner,~1899 * * * *|||
 [GB] [FA]2- [FA]2- [FA]/ z/ | [FA] [FA]2 [DF]DC | [A,D] [DF]2- [DF] [CE]2 | %6
w: |||
 [CE][CE][E^G] [GB] [Bd]2 | [E^G] [EA]2- [EA]2- [EA]/ z/ | [EA] [EG]2 E [Gc]2 | %9
w: |||
 [GB] [GB]2- [GB] [FA]2 | [FA] [EG]2 E [Gc]2 | [GB] [FA]2- [FA]2- [FA]/ z/ | %12
w: |||
 [FA] [Ad]2 [Ac] [Ge]2 | [Fd] [Gc]2- [Gc] [GB]2 | [EG][DF][FA] [EG] [DF]2 | [CE] D2- D3- | D3 z3 |] %17
w: |||||
V:2
 z3 z A,2 | x6 | x6 | x6 | z3 z A,2 | x6 | x6 | x6 | x6 | x6 | x6 | x6 | x6 | x6 | x6 | x6 | x6 |] %17
V:3
 D D2 A,A,G, | F, A,2- A, A,2 | A, A,2 A, A,2 | C D2- D2- D/ z/ | D D2[K:bass] A,A,G, | %5
 F, A,2- A, A,2 | A,A,B,[K:treble] E E2 | D C2- C2- C/ z/ | C C2 C E2 | C D2- D D2 | D C2 C E2 | %11
 C D2- D2- D/ z/ | D D2[K:bass] A, A,2 | A, E2- E D2 | B,A,D A, A,2 | G, F,2- F,3- | F,3 z3 |] %17
V:4
 D, D,2 D,F,E, | D, A,,2- A,, A,,2 | A,, A,,2 A,, A,,2 | A,, D,2- D,2- D,/ z/ | D, D,2 D,F,E, | %5
 D, A,,2- A,, A,,2 | A,, E,2 E, E,2 | E, A,2- A,2- A,/ z/ | A, A,2 A, A,2 | A, D,2- D, D,2 | %10
 D, A,,2 A,, A,,2 | A,, D,2- D,2- D,/ z/ | D, F,2 E, C,2 | D, G,2- G, G,2 | .G,3 z A,,2 | %15
 A,, D,2- D,3- | D,3 z3 |] %17

